website/static/img/icons/white/slack.svg

<svg fill="none" height="27" viewBox="0 0 27 27" width="27" xmlns="http://www.w3.org/2000/svg"><path clip-rule="evenodd" d="m6.13636 3.06818c0-1.69644 1.37175-3.06818 3.06819-3.06818 1.69645 0 3.06815 1.37174 3.06815 3.06818v1.84091c0 .6778-.5494 1.22727-1.2272 1.22727h-1.84095c-1.69644 0-3.06819-1.37174-3.06819-3.06818zm3.06819-.61363c-.34084 0-.61364.2728-.61364.61363s.2728.61364.61364.61364h.61363v-.61364c0-.34083-.2728-.61363-.61363-.61363zm7.36365 0c-.3409 0-.6137.2728-.6137.61363v6.13637c0 .34083.2728.61363.6137.61363.3408 0 .6136-.2728.6136-.61363v-6.13637c0-.34083-.2728-.61363-.6136-.61363zm-3.0682.61363c0-1.69644 1.3717-3.06818 3.0682-3.06818 1.6964 0 3.0682 1.37174 3.0682 3.06818v6.13637c0 1.69645-1.3718 3.06815-3.0682 3.06815-1.6965 0-3.0682-1.3717-3.0682-3.06815zm10.4318 5.52273c-.3408 0-.6136.2728-.6136.61364v.61363h.6136c.3409 0 .6137-.2728.6137-.61363 0-.34084-.2728-.61364-.6137-.61364zm-3.0682.61364c0-1.69644 1.3718-3.06819 3.0682-3.06819 1.6965 0 3.0682 1.37175 3.0682 3.06819 0 1.69645-1.3717 3.06815-3.0682 3.06815h-1.8409c-.6778 0-1.2273-.5494-1.2273-1.2272zm-20.8636 1.22725c0-1.69642 1.37174-3.06816 3.06818-3.06816h6.13637c1.69645 0 3.06815 1.37174 3.06815 3.06816 0 1.6965-1.3717 3.0682-3.06815 3.0682h-6.13637c-1.69644 0-3.06818-1.3717-3.06818-3.0682zm3.06818-.61362c-.34083 0-.61363.27282-.61363.61362 0 .3409.2728.6137.61363.6137h6.13637c.34083 0 .61363-.2728.61363-.6137 0-.3408-.2728-.61362-.61363-.61362zm14.72732 6.13632c-.3409 0-.6137.2728-.6137.6137 0 .3408.2728.6136.6137.6136h6.1363c.3409 0 .6137-.2728.6137-.6136 0-.3409-.2728-.6137-.6137-.6137zm-3.0682.6137c0-1.6965 1.3717-3.0682 3.0682-3.0682h6.1363c1.6965 0 3.0682 1.3717 3.0682 3.0682 0 1.6964-1.3717 3.0682-3.0682 3.0682h-6.1363c-1.6965 0-3.0682-1.3718-3.0682-3.0682zm-11.65912.6136c-.34083 0-.61363.2728-.61363.6137 0 .3408.2728.6136.61363.6136s.61364-.2728.61364-.6136v-.6137zm-3.06818.6137c0-1.6965 1.37174-3.0682 3.06818-3.0682h1.84091c.6778 0 1.22727.5494 1.22727 1.2272v1.841c0 1.6964-1.37174 3.0681-3.06818 3.0681s-3.06818-1.3717-3.06818-3.0681zm10.4318-.6137c-.3408 0-.61362.2728-.61362.6137v6.1363c0 .3409.27282.6137.61362.6137.3409 0 .6137-.2728.6137-.6137v-6.1363c0-.3409-.2728-.6137-.6137-.6137zm-3.06816.6137c0-1.6965 1.37174-3.0682 3.06816-3.0682 1.6965 0 3.0682 1.3717 3.0682 3.0682v6.1363c0 1.6965-1.3717 3.0682-3.0682 3.0682-1.69642 0-3.06816-1.3717-3.06816-3.0682zm7.36366 4.2954c0-.6778.5494-1.2273 1.2272-1.2273h1.841c1.6964 0 3.0681 1.3718 3.0681 3.0682 0 1.6965-1.3717 3.0682-3.0681 3.0682-1.6965 0-3.0682-1.3717-3.0682-3.0682zm2.4545 1.2273v.6136c0 .3409.2728.6137.6137.6137.3408 0 .6136-.2728.6136-.6137 0-.3408-.2728-.6136-.6136-.6136z" fill="#fff" fill-rule="evenodd"/></svg>

<svg width="27" height="27" viewBox="0 0 27 27" fill="none" xmlns="http://www.w3.org/2000/svg">
<path fill-rule="evenodd" clip-rule="evenodd" d="M6.13636 3.06818C6.13636 1.37174 7.50811 0 9.20455 0C10.901 0 12.2727 1.37174 12.2727 3.06818V4.90909C12.2727 5.58689 11.7233 6.13636 11.0455 6.13636H9.20455C7.50811 6.13636 6.13636 4.76462 6.13636 3.06818ZM9.20455 2.45455C8.86371 2.45455 8.59091 2.72735 8.59091 3.06818C8.59091 3.40901 8.86371 3.68182 9.20455 3.68182H9.81818V3.06818C9.81818 2.72735 9.54538 2.45455 9.20455 2.45455ZM16.5682 2.45455C16.2273 2.45455 15.9545 2.72735 15.9545 3.06818V9.20455C15.9545 9.54538 16.2273 9.81818 16.5682 9.81818C16.909 9.81818 17.1818 9.54538 17.1818 9.20455V3.06818C17.1818 2.72735 16.909 2.45455 16.5682 2.45455ZM13.5 3.06818C13.5 1.37174 14.8717 0 16.5682 0C18.2646 0 19.6364 1.37174 19.6364 3.06818V9.20455C19.6364 10.901 18.2646 12.2727 16.5682 12.2727C14.8717 12.2727 13.5 10.901 13.5 9.20455V3.06818ZM23.9318 8.59091C23.591 8.59091 23.3182 8.86371 23.3182 9.20455V9.81818H23.9318C24.2727 9.81818 24.5455 9.54538 24.5455 9.20455C24.5455 8.86371 24.2727 8.59091 23.9318 8.59091ZM20.8636 9.20455C20.8636 7.50811 22.2354 6.13636 23.9318 6.13636C25.6283 6.13636 27 7.50811 27 9.20455C27 10.901 25.6283 12.2727 23.9318 12.2727H22.0909C21.4131 12.2727 20.8636 11.7233 20.8636 11.0455V9.20455ZM0 10.4318C0 8.73538 1.37174 7.36364 3.06818 7.36364H9.20455C10.901 7.36364 12.2727 8.73538 12.2727 10.4318C12.2727 12.1283 10.901 13.5 9.20455 13.5H3.06818C1.37174 13.5 0 12.1283 0 10.4318ZM3.06818 9.81818C2.72735 9.81818 2.45455 10.091 2.45455 10.4318C2.45455 10.7727 2.72735 11.0455 3.06818 11.0455H9.20455C9.54538 11.0455 9.81818 10.7727 9.81818 10.4318C9.81818 10.091 9.54538 9.81818 9.20455 9.81818H3.06818ZM17.7955 15.9545C17.4546 15.9545 17.1818 16.2273 17.1818 16.5682C17.1818 16.909 17.4546 17.1818 17.7955 17.1818H23.9318C24.2727 17.1818 24.5455 16.909 24.5455 16.5682C24.5455 16.2273 24.2727 15.9545 23.9318 15.9545H17.7955ZM14.7273 16.5682C14.7273 14.8717 16.099 13.5 17.7955 13.5H23.9318C25.6283 13.5 27 14.8717 27 16.5682C27 18.2646 25.6283 19.6364 23.9318 19.6364H17.7955C16.099 19.6364 14.7273 18.2646 14.7273 16.5682ZM3.06818 17.1818C2.72735 17.1818 2.45455 17.4546 2.45455 17.7955C2.45455 18.1363 2.72735 18.4091 3.06818 18.4091C3.40901 18.4091 3.68182 18.1363 3.68182 17.7955V17.1818H3.06818ZM0 17.7955C0 16.099 1.37174 14.7273 3.06818 14.7273H4.90909C5.58689 14.7273 6.13636 15.2767 6.13636 15.9545V17.7955C6.13636 19.4919 4.76462 20.8636 3.06818 20.8636C1.37174 20.8636 0 19.4919 0 17.7955ZM10.4318 17.1818C10.091 17.1818 9.81818 17.4546 9.81818 17.7955V23.9318C9.81818 24.2727 10.091 24.5455 10.4318 24.5455C10.7727 24.5455 11.0455 24.2727 11.0455 23.9318V17.7955C11.0455 17.4546 10.7727 17.1818 10.4318 17.1818ZM7.36364 17.7955C7.36364 16.099 8.73538 14.7273 10.4318 14.7273C12.1283 14.7273 13.5 16.099 13.5 17.7955V23.9318C13.5 25.6283 12.1283 27 10.4318 27C8.73538 27 7.36364 25.6283 7.36364 23.9318V17.7955ZM14.7273 22.0909C14.7273 21.4131 15.2767 20.8636 15.9545 20.8636H17.7955C19.4919 20.8636 20.8636 22.2354 20.8636 23.9318C20.8636 25.6283 19.4919 27 17.7955 27C16.099 27 14.7273 25.6283 14.7273 23.9318V22.0909ZM17.1818 23.3182V23.9318C17.1818 24.2727 17.4546 24.5455 17.7955 24.5455C18.1363 24.5455 18.4091 24.2727 18.4091 23.9318C18.4091 23.591 18.1363 23.3182 17.7955 23.3182H17.1818Z" fill="white"/>
</svg>
